src/assets/duotone/GpsSlash.svg

<svg width="24" height="24" viewBox="0 0 24 24"  xmlns="http://www.w3.org/2000/svg">
<path opacity="0.4" d="M18.9401 8.06006L15.1101 11.8901C15.1201 11.9301 15.1201 11.9601 15.1201 12.0001C15.1201 13.7201 13.7201 15.1201 12.0001 15.1201C11.9601 15.1201 11.9301 15.1201 11.8901 15.1101L8.06006 18.9401C9.22006 19.6201 10.5701 20.0001 12.0001 20.0001C16.4101 20.0001 20.0001 16.4101 20.0001 12.0001C20.0001 10.5701 19.6201 9.22006 18.9401 8.06006Z" />
<path opacity="0.4" d="M17.65 6.35L14.2 9.8C13.64 9.23 12.86 8.88 12 8.88C10.28 8.88 8.88 10.28 8.88 12C8.88 12.86 9.23 13.64 9.8 14.2L6.35 17.65C4.9 16.2 4 14.2 4 12C4 7.59 7.59 4 12 4C14.2 4 16.2 4.9 17.65 6.35Z" />
<path d="M14.1999 9.79988L9.79988 14.1999C9.22988 13.6399 8.87988 12.8599 8.87988 11.9999C8.87988 10.2799 10.2799 8.87988 11.9999 8.87988C12.8599 8.87988 13.6399 9.22988 14.1999 9.79988Z" />
<path d="M12.75 2V4.04H12.74C12.5 4.01 12.25 4 12 4C11.75 4 11.5 4.01 11.26 4.04H11.25V2C11.25 1.59 11.59 1.25 12 1.25C12.41 1.25 12.75 1.59 12.75 2Z" />
<path d="M4 12C4 12.25 4.01 12.51 4.04 12.75H2C1.59 12.75 1.25 12.41 1.25 12C1.25 11.59 1.59 11.25 2 11.25H4.04C4.01 11.49 4 11.75 4 12Z" />
<path d="M12.75 19.96V22C12.75 22.41 12.41 22.75 12 22.75C11.59 22.75 11.25 22.41 11.25 22V19.96H11.26C11.5 19.99 11.75 20 12 20C12.25 20 12.5 19.99 12.74 19.96H12.75Z" />
<path d="M22.75 12C22.75 12.41 22.41 12.75 22 12.75H19.96C19.99 12.51 20 12.25 20 12C20 11.75 19.99 11.49 19.96 11.25H22C22.41 11.25 22.75 11.59 22.75 12Z" />
<path d="M21.7699 2.22988C21.4699 1.92988 20.9799 1.92988 20.6799 2.22988L2.22988 20.6899C1.92988 20.9899 1.92988 21.4799 2.22988 21.7799C2.37988 21.9199 2.56988 21.9999 2.76988 21.9999C2.96988 21.9999 3.15988 21.9199 3.30988 21.7699L21.7699 3.30988C22.0799 3.00988 22.0799 2.52988 21.7699 2.22988Z" />
</svg>

<?xml version="1.0" encoding="UTF-8"?>
<svg width="24" height="24" viewBox="0 0 24 24" xmlns="http://www.w3.org/2000/svg">
 <path d="m18.94 8.0601-3.83 3.83c0.01 0.04 0.01 0.07 0.01 0.11 0 1.72-1.4 3.12-3.12 3.12-0.04 0-0.07 0-0.11-0.01l-3.83 3.83c1.16 0.68 2.51 1.06 3.94 1.06 4.41 0 8-3.59 8-8 0-1.43-0.38-2.78-1.06-3.94z" opacity=".4"/>
 <path d="m17.65 6.35-3.45 3.45c-0.56-0.57-1.34-0.92-2.2-0.92-1.72 0-3.12 1.4-3.12 3.12 0 0.86 0.35 1.64 0.92 2.2l-3.45 3.45c-1.45-1.45-2.35-3.45-2.35-5.65 0-4.41 3.59-8 8-8 2.2 0 4.2 0.9 5.65 2.35z" opacity=".4"/>
 <path d="m14.2 9.7999-4.4 4.4c-0.57-0.56-0.92-1.34-0.92-2.2 0-1.72 1.4-3.12 3.12-3.12 0.86 0 1.64 0.35 2.2 0.92z"/>
 <path d="m12.75 2v2.04h-0.01c-0.24-0.03-0.49-0.04-0.74-0.04s-0.5 0.01-0.74 0.04h-0.01v-2.04c0-0.41 0.34-0.75 0.75-0.75s0.75 0.34 0.75 0.75z"/>
 <path d="m4 12c0 0.25 0.01 0.51 0.04 0.75h-2.04c-0.41 0-0.75-0.34-0.75-0.75s0.34-0.75 0.75-0.75h2.04c-0.03 0.24-0.04 0.5-0.04 0.75z"/>
 <path d="m12.75 19.96v2.04c0 0.41-0.34 0.75-0.75 0.75s-0.75-0.34-0.75-0.75v-2.04h0.01c0.24 0.03 0.49 0.04 0.74 0.04s0.5-0.01 0.74-0.04h0.01z"/>
 <path d="m22.75 12c0 0.41-0.34 0.75-0.75 0.75h-2.04c0.03-0.24 0.04-0.5 0.04-0.75s-0.01-0.51-0.04-0.75h2.04c0.41 0 0.75 0.34 0.75 0.75z"/>
 <path d="m21.77 2.2299c-0.3-0.3-0.79-0.3-1.09 0l-18.45 18.46c-0.3 0.3-0.3 0.79 0 1.09 0.15 0.14 0.34 0.22 0.54 0.22s0.39-0.08 0.54-0.23l18.46-18.46c0.31-0.3 0.31-0.78 0-1.08z"/>
</svg>
